X: 1
T: Seosamh MacMathghamha's Reel
C: Joseph Mathews
O: Joseph Mathews
S: Joe63251@aol.com
R: reel
M: C|
L: 1/8
Z: Contributed 20030625023634 by Joseph Mathews/Seosamh MacMathghamha Joe63251@aol.com
K: Ador
|: "Am"A{B}AeA fAeG | "Am"Aced cAGE | "D"F{G}FdF eFdF | "Am"EFAc "Em"B2EG |
 | "Am"A{B}AeA fAeG | "Am"Aced cAGE | "D7"FGAF "C"cBcd | "C"ecGE "Am"~~D2E2 :|
|: "Em"(6geBGBe gfeg | "Bm"fede B2cA | "Em"(6BeBGBe "D"fgaf | "Em"eged e2Bf |
 | "Em"(6geBGBe gfeg | "Bm"fede B2A2 | "D7"FGAF "C"cBcd | "C"ecGE "Am"~~D2E2 :|
